!!!OTL: Die plappernden Junggesellen. (Erste Leseart.)
!!!ARE: Europa, Mitteleuropa, Deutschland
!!!SCT: A0075
!!!TXL: @@GMH
!!!YEM: Copyright 1995, estate of Helmut Schaffrath.
**kern	**text	**text
*M4/4	*	*
*met(c)	*	*
*k[]	*	*
*G:	*	*
!LO:TX:a:t= G dur. (Ohne Vorzeichnung.)	!	!
{4d	A._	B._Gůt
=1	=1	=1
2g	Nech-	rei-
2b/	-ten	-ter
=2	=2	=2
2.dd	war	bei
4cc	ich	dem
=3	=3	=3
*lig	*	*
2b/	trun-	wei-
2a	.	-ne
*Xlig	*	*
=4	=4	=4
2g	-ckenn	ſaß
4r}	.	.
{4d	da	und
=5	=5	=5
2g	redt	ſich
2b/	ich	vil
=6	=6	=6
2.dd	nach	ſtol-
4cc	ge-	-ʒer
=7	=7	=7
(2b/	-dun-	red
2a)	.	ver-
=8	=8	=8
2g	-cken,	-maß:
4r}	.	.
{4b	und	mir
=9	=9	=9
*lig	*	*
4b	Al-	hat
4b	-les	.
*Xlig	*	*
*lig	*	*
4b	was	ein
4b	ich	.
*Xlig	*	*
=10	=10	=10
*lig	*	*
2b	red-	ſchöns
4a	-te,	.
*Xlig	*	*
4g	das	jung-
=11	=11	=11
*lig	*	*
4b	tet	-frew-
4dd	der	.
*Xlig	*	*
4cc	kü-	-e-
4b	-le	.
=12	=12	=12
2a	wein:	-lein
4r}	.	.
{4d	ſtand	ſein
=13	=13	=13
4g	auf,	trew
4a	du	und
4b/	fei-	er
4cc	-nes	ver-
=14	=14	=14
(4.dd	mägde-	-hei-
8ee)	.	.
4dd	-lein,	-ßen,
4cc	vnd	ver-
=15	=15	=15
*lig	*	*
4b/	laß	-hei-
4b/	mich	.
*Xlig	*	*
*lig	*	*
4a	ʒu	.
4a	dir	.
*Xlig	*	*
=16	=16	=16
2g	ein.	-ßen.
4r}	.	.
==	==	==
!!!GTL: Balladen und Romanzen (erzählende Volkslieder)
!!!AGN: Romanze, Ballade, Lied
!! Melodie in Francks Fasc. quodl. 1611 No. 4. Rhythmus von Boehme
!!    ueberarbeitet.
!!!ONB: ESAC (Essen Associative Code) Database: ALTDEU
!!!AMT: simple quadruple
!!!AIN: vox
!!!EED: Helmut Schaffrath
!!!EEV: 1.0
!!!URL-scan: https://rosdok.uni-rostock.de/mcrviewer/recordIdentifier/rosdok_ppn738218359/iview2/phys_0234.iview2?x=-425.8853427895981&y=85.8340425544884&scale=0.4823261117445838&rotation=0&layout=singlePageLayout
!!!ENC: Anna Maria Matuszewska
!!!EEV: 2024/22/02
*-	*-	*-
